X: 1
T: Morrison's Favourite
M: 6/8
L: 1/8
R: jig
K: Dmix
ABA DED | A2 B c2 A | GAG G2 E | GAG EFG |
ABA DED | A2 B c2 A  | GFG BAG |1 FDD DEG :|2 FDD D3 ||
fgf fed | cAG EFG | fgf fed | eaa efg | 
fgf fed | cAG EFG | GFG BAG |1 FDD D2 e :|2 FDD D3 ||
